!!!COM: Palestrina, Giovanni Perluigi da
!!!OPR: Assumpta est Maria
!!!OTL: Gloria
**kern	**kern	**kern	**kern	**kern	**kern
*Ibass	*Itenor	*Itenor	*Icalto	*Icant	*Icant
!Bassus	!Tenor 2	!Tenor 1	!Altus	!Cantus 2	!Cantus 1
*clefF4	*clefGv2	*clefGv2	*clefG2	*clefG2	*clefG2
*k[]	*k[]	*k[]	*k[]	*k[]	*k[]
*G:mix	*G:mix	*G:mix	*G:mix	*G:mix	*G:mix
*M4/2	*M4/2	*M4/2	*M4/2	*M4/2	*M4/2
=1	=1	=1	=1	=1	=1
1G	0r	1B	1d	1.g	0r
1G	.	1B	1d	.	.
.	.	.	.	2g	.
=2	=2	=2	=2	=2	=2
2E	0r	2G	2g	2b	0r
2E	.	2G	2e	2cc	.
2D	.	2A	2f#	2dd	.
2G	.	2B	2g	2dd	.
=3	=3	=3	=3	=3	=3
1.C	0r	1.c	1.g	1.ee	0r
2C	.	2c	2g	2ee	.
=4	=4	=4	=4	=4	=4
0G	2r	0B	1g	1dd	2r
.	1d	.	.	.	1g
.	.	.	1r	2.dd	.
.	2d	.	.	.	2g
.	.	.	.	4dd	.
=5	=5	=5	=5	=5	=5
0r	2g	0r	0r	2dd	2b
.	2e	.	.	2g	2cc
.	2f	.	.	2a	1dd
.	2g	.	.	2b	.
=6	=6	=6	=6	=6	=6
2r	2c	2r	2r	1cc	2ee
2c	2g	2e	2cc	.	2ee
1c	1g	1e	1cc	1r	1gg
=7	=7	=7	=7	=7	=7
1F	1a	2f	1cc	0r	1ff
.	.	2.c	.	.	.
1c	1g	.	1cc	.	1ee
.	.	4d	.	.	.
.	.	4e	.	.	.
.	.	4f	.	.	.
=8	=8	=8	=8	=8	=8
0r	0r	2g	0r	2r	2r
.	.	1g	.	1b	1dd
.	.	2g	.	2b	2dd
=9	=9	=9	=9	=9	=9
0r	0r	1c	0r	1cc	1ee
.	.	2c	.	2cc	2ee
.	.	2c	.	2cc	2ee
=10	=10	=10	=10	=10	=10
2r	2r	1g	2r	2b	2dd
1c	1e	.	1g	1ee	1cc
.	.	2r	.	.	.
2c	2e	[2c	2g	2ee	2cc
=11	=11	=11	=11	=11	=11
1F	1c	2c]	1a	1ff	1cc
.	.	2A	.	.	.
1F	1A	2c	1a	1ff	1cc
.	.	2d	.	.	.
=12	=12	=12	=12	=12	=12
2C	2c	2e	2g	2ee	2cc
2C	2c	2e	2g	2cc	2ee
2C	2c	2e	2g	2cc	2ee
2C	4G	2c	2g	2cc	2ee
.	4A	.	.	.	.
=13	=13	=13	=13	=13	=13
1G	4B	1d	1g	1b	2dd
.	4c	.	.	.	.
.	2d	.	.	.	2.gg
1C	2c	2.g	2.e	2cc	.
.	.	.	.	.	4ff
.	2c	.	.	4cc	[2ee
.	.	4f	4f	4dd	.
=14	=14	=14	=14	=14	=14
4C	[0G	1e	0g	4ee	4ee]
4D	.	.	.	4ff	4dd
4E	.	.	.	2.gg	1cc
4F	.	.	.	.	.
1G	.	1d	.	.	.
.	.	.	.	4ff	.
.	.	.	.	2dd	2b
=15	=15	=15	=15	=15	=15
1C	1G]	1c	1e	1ee	1cc
1r	1r	1r	1r	1r	1r
=16	=16	=16	=16	=16	=16
1.D	1.d	1.A	1.f#	1.dd	1.a
2D	2d	2A	2f#	2dd	2a
=17	=17	=17	=17	=17	=17
1D	1d	1A	1f#	1dd	1a
[1G	2.d	4G	[1g	[1dd	[1b
.	.	4A	.	.	.
.	.	4B	.	.	.
.	4c	4c	.	.	.
=18	=18	=18	=18	=18	=18
2G]	2B	2d	2g]	2dd]	2b]
2G	2B	2d	2g	2dd	2b
1G	2G	1d	1g	1b	1dd
.	4g	.	.	.	.
.	4f	.	.	.	.
=19	=19	=19	=19	=19	=19
0C	4e	2.c	0g	0cc	0ee
.	4d	.	.	.	.
.	4e	.	.	.	.
.	4d	8B	.	.	.
.	.	8A	.	.	.
.	4c	2G	.	.	.
.	4B	.	.	.	.
.	2c	2A	.	.	.
=20	=20	=20	=20	=20	=20
0G	2d	1B	1g	2b	2dd
.	1g	.	.	1dd	1b
.	.	1r	1r	.	.
.	2g	.	.	2dd	2b
=21	=21	=21	=21	=21	=21
0r	2c	0r	0r	2ee	2cc
.	2e	.	.	2gg	2g
.	2d	.	.	2ff	2a
.	2c	.	.	2ee	2cc
=22	=22	=22	=22	=22	=22
0r	1.g	0r	0r	4dd	4b
.	.	.	.	4cc	4cc
.	.	.	.	4b	4dd
.	.	.	.	4a	4ee
.	.	.	.	2b	1dd
.	2f	.	.	[2a	.
=23	=23	=23	=23	=23	=23
0r	1e	0r	0r	4a]	4cc
.	.	.	.	4g	4b
.	.	.	.	1g	4b
.	.	.	.	.	8a
.	.	.	.	.	8g
.	1d	.	.	.	1a
.	.	.	.	2f#	.
=24	=24	=24	=24	=24	=24
2r	1e	2r	2r	1g	1g
1c	.	1e	1g	.	.
.	2r	.	.	1r	1r
2c	[2c	2e	2g	.	.
=25	=25	=25	=25	=25	=25
2F	2c]	2f	2a	0r	0r
2A	2c	2e	2cc	.	.
2G	2d	2f	2b	.	.
4F	2f	2c	[2a	.	.
4G	.	.	.	.	.
=26	=26	=26	=26	=26	=26
4A	2e	2.c	2a]	0r	0r
4B	.	.	.	.	.
1c	1e	.	2g	.	.
.	.	4d	.	.	.
.	.	4e	2.g	.	.
.	.	4f	.	.	.
2B	2d	[2g	.	.	.
.	.	.	8a	.	.
.	.	.	8b	.	.
=27	=27	=27	=27	=27	=27
1A	1c	2g]	1cc	1r	1r
.	.	2f#	.	.	.
1G	1d	2g	1b	2r	2r
.	.	[2g	.	[2b	[2dd
=28	=28	=28	=28	=28	=28
0r	0r	2g]	2g	2b]	2dd]
.	.	2e	2g	2cc	2ee
.	.	1d	1a	1dd	1ff
=29	=29	=29	=29	=29	=29
0r	0r	0c	2.cc	2g	1ee
.	.	.	.	4cc	.
.	.	.	8b	4dd	.
.	.	.	8a	.	.
.	.	.	4g	4ee	2r
.	.	.	4f	4ff	.
.	.	.	4e	[2gg	4cc
.	.	.	4d	.	4dd
=30	=30	=30	=30	=30	=30
0r	0r	2r	1c	4gg]	4ee
.	.	.	.	4ff	4ff
.	.	2c	.	2ee	2gg
.	.	2d	1r	2dd	2ff
.	.	2e	.	2cc	2ee
=31	=31	=31	=31	=31	=31
2r	2r	1g	2r	1b	1dd
1G	1d	.	1g	.	.
.	.	2d	.	1r	1r
2A	2a	2c	2e	.	.
=32	=32	=32	=32	=32	=32
1B-	2f	1d	1d	0r	0r
.	2g	.	.	.	.
2A	1a	2e	2c	.	.
4F	.	4A	[2cc	.	.
4G	.	4B	.	.	.
=33	=33	=33	=33	=33	=33
4A	1e	4c	4cc]	0r	0r
4B	.	4d	8b	.	.
.	.	.	8a	.	.
2c	.	2e	4g	.	.
.	.	.	4a	.	.
2B	2g	2d	2b	.	.
2A	2f	2c	[2cc	.	.
=34	=34	=34	=34	=34	=34
1G	2.g	1d	2cc]	1r	1r
.	.	.	2b	.	.
.	4f	.	.	.	.
1C	2e	1c	2cc	2r	2r
.	[2c	.	[2g	[2cc	[2ee
=35	=35	=35	=35	=35	=35
0r	4c]	0r	4g]	4cc]	4ee]
.	4c	.	4g	4cc	4ee
.	2B	.	2g	2dd	2dd
.	2c	.	2g	2ee	2cc
.	2G	.	2g	2dd	2b
=36	=36	=36	=36	=36	=36
0r	2.A	0r	1e	1.cc	4a
.	.	.	.	.	4b
.	.	.	.	.	4cc
.	4B	.	.	.	4dd
.	4c	.	4e	.	2.ee
.	4d	.	4f	.	.
.	[2e	.	4g	4b	.
.	.	.	4a	4a	4ff
=37	=37	=37	=37	=37	=37
0r	2e]	0r	2b	1g	2gg
.	2c	.	1cc	.	2ee
.	2f	.	.	1a	2cc
.	2f	.	4b	.	2dd
.	.	.	4a	.	.
=38	=38	=38	=38	=38	=38
0r	0e	0r	2g#	2b	[0ee
.	.	.	1a	2cc	.
.	.	.	.	1b	.
.	.	.	2g#	.	.
=39	=39	=39	=39	=39	=39
1r	1r	1r	1a	1cc#	1ee]
[1G	2r	[1e	[1a	[1ee	[1cc#
.	[2e	.	.	.	.
=40	=40	=40	=40	=40	=40
1G]	2e]	1e]	1a]	1ee]	1cc#]
.	1A	.	.	.	.
1D	.	1d	1a	1ff#	1dd
.	[2d	.	.	.	.
=41	=41	=41	=41	=41	=41
0G	4d]	2.B	0g	2gg	0dd
.	4e	.	.	.	.
.	4d	.	.	4g	.
.	4c	4c	.	4a	.
.	4B	1d	.	4b	.
.	4G	.	.	4cc	.
.	2g	.	.	4dd	.
.	.	.	.	4b	.
=42	=42	=42	=42	=42	=42
1C	1e	1c	1g	1cc	1ee
2r	2r	2r	2r	1r	1r
[2F	[2f	[2c	[2a	.	.
=43	=43	=43	=43	=43	=43
2F]	2f]	2c]	2a]	0r	0r
2C	2e	2c	2g	.	.
1D	1d	1A	1f#	.	.
=44	=44	=44	=44	=44	=44
1G	1d	1B	1g	1r	1r
1C	1g	2c	2e	2r	2r
.	.	[2c	[2g	[2ee	[2cc
=45	=45	=45	=45	=45	=45
0r	0r	2c]	2g]	2ee]	2cc]
.	.	2G	2g	2dd	2b
.	.	1A	1e	1cc	1a
=46	=46	=46	=46	=46	=46
0r	0r	1d	1f#	1dd	1a
.	.	4G	2g	1b	2dd
.	.	4A	.	.	.
.	.	4B	4d	.	[2dd
.	.	4c	4e	.	.
=47	=47	=47	=47	=47	=47
0r	0r	2d	4f	2.a	2dd]
.	.	.	4g	.	.
.	.	1f	2.a	.	4cc
.	.	.	.	4b	4b
.	.	.	.	2cc	2a
.	.	.	4g	.	.
.	.	2B-	[2f	2dd	2b-
=48	=48	=48	=48	=48	=48
1r	1r	1c	4f]	1cc	1g
.	.	.	8e	.	.
.	.	.	8d	.	.
.	.	.	2e	.	.
2r	2r	2F	2f	1cc	1a
[2F	[2c	[2f	[2a	.	.
=49	=49	=49	=49	=49	=49
2F]	2c]	2f]	2a]	0r	0r
2D	2d	2f	2a	.	.
2.A	2.c	2.e	2a	.	.
.	.	.	[2cc	.	.
4B	4B	4d	.	.	.
=50	=50	=50	=50	=50	=50
2c	4A	2e	4cc]	0r	0r
.	4G	.	4b	.	.
2.d	2F	2f	1a	.	.
.	1A	2e	.	.	.
4c	.	.	.	.	.
[2c	.	4d	2f	.	.
.	.	4c	.	.	.
=51	=51	=51	=51	=51	=51
2c]	1G	1d	1g	1r	1r
2B	.	.	.	.	.
1c	2r	1e	2r	2r	2r
.	[2c	.	[2g	[2ee	[2cc
=52	=52	=52	=52	=52	=52
0r	2c]	1r	2g]	2ee]	2cc]
.	2A	.	2a	2ee	2cc
.	2.e	2r	2.g	2.ee	2b
.	.	[2c	.	.	4cc
.	4f	.	4f	4dd	4dd
=53	=53	=53	=53	=53	=53
0r	2g	2c]	1e	4cc	1.ee
.	.	.	.	4b	.
.	2.a	2A	.	2cc	.
.	.	1e	1r	2b	.
.	4g	.	.	.	.
.	[2g	.	.	4a	2cc
.	.	.	.	4g	.
=54	=54	=54	=54	=54	=54
1.D	2g]	0d	1r	0a	0dd
.	4f#	.	.	.	.
.	4e	.	.	.	.
.	1f#	.	2r	.	.
2D	.	.	[2d	.	.
=55	=55	=55	=55	=55	=55
0G	2g	[0G	2d]	2b	2dd
.	1d	.	2d	1dd	1b
.	.	.	1g	.	.
.	2d	.	.	2dd	2b
=56	=56	=56	=56	=56	=56
0C	1g	1G_	2.e	1ee	1cc
.	.	.	4f	.	.
.	1c	1G_	1g	1cc	1ee
=57	=57	=57	=57	=57	=57
0G	0d	0G]	0g	0b	0dd
=58	=58	=58	=58	=58	=58
0r	0r	1G	1g	1dd	1b
.	.	1d	1f#	1dd	1a
=59	=59	=59	=59	=59	=59
0r	0r	2G	2g	2dd	2b
.	.	2G	2g	2dd	2b
.	.	2c	2g	2ee	2cc
.	.	2B	2g	2dd	2dd
=60	=60	=60	=60	=60	=60
0r	0r	2.c	0g	1cc	1.ee
.	.	4d	.	.	.
.	.	4e	.	2.b	.
.	.	4f#	.	.	.
.	.	[2g	.	.	4dd
.	.	.	.	8a	4cc
.	.	.	.	8g	.
=61	=61	=61	=61	=61	=61
0r	0r	2g]	0d	0a	0dd
.	.	4f#	.	.	.
.	.	4e	.	.	.
.	.	1f#	.	.	.
=62	=62	=62	=62	=62	=62
1r	1r	1g	1r	1b	1dd
[1C	[1c	[1e	[1g	[1cc	[1ee
=63	=63	=63	=63	=63	=63
2C]	2c]	2e]	2g]	2cc]	2ee]
2C	2c	2g	2e	2cc	2ee
2F	2c	2f	2a	2cc	2ff
2F	2A	2f	2a	2cc	2ff
=64	=64	=64	=64	=64	=64
0BB-	0B-	4d	4f	2.dd	2.ff
.	.	4e	4e	.	.
.	.	4f	4d	.	.
.	.	4g	4c	4ee	4ee
.	.	4f	1d	1ff	1dd
.	.	4e	.	.	.
.	.	2d	.	.	.
=65	=65	=65	=65	=65	=65
1C	1G	1e	1g	0ee	0cc
2r	2r	2r	2r	.	.
2C	2c	2e	2g	.	.
=66	=66	=66	=66	=66	=66
1G	1B	1d	1g	0r	0r
2C	2c	2e	2g	.	.
2C	2c	2e	2g	.	.
=67	=67	=67	=67	=67	=67
2F	2c	2f	2a	0r	0r
2E	2c	2g	2g	.	.
2.F	[1c	[1a	1f	.	.
4G	.	.	.	.	.
=68	=68	=68	=68	=68	=68
4A	1c]	2a]	2.e	0r	0r
4B	.	.	.	.	.
2.c	.	4g	.	.	.
.	.	4f	8d	.	.
.	.	.	8c	.	.
.	1G	1g	1d	.	.
8B	.	.	.	.	.
8A	.	.	.	.	.
2B	.	.	.	.	.
=69	=69	=69	=69	=69	=69
1c	1r	1e	1g	1r	1r
[1F	[1A	[1c	[1a	[1ff	[1cc
=70	=70	=70	=70	=70	=70
2F]	2A]	2c]	2a]	2ff]	2cc]
2C	2c	2e	2g	2ee	2cc
1C	1c	2e	1g	1ee	1cc
.	.	[2g	.	.	.
=71	=71	=71	=71	=71	=71
2.G	2.d	2g]	2.g	2.dd	2.b
.	.	2G	.	.	.
4G	4d	.	4g	4dd	4b
2G	2d	2B	2g	2dd	2b
2G	2d	2G	2g	2dd	2b
=72	=72	=72	=72	=72	=72
1D	1d	1A	1f#	1dd	1a
1G	1B	2G	1g	1dd	2b
.	.	[2g	.	.	[2dd
=73	=73	=73	=73	=73	=73
2.E	0G	4g]	0g	0gg	2dd]
.	.	4f	.	.	.
.	.	2e	.	.	1cc
4F	.	.	.	.	.
1G	.	1d	.	.	.
.	.	.	.	.	2b
=74	=74	=74	=74	=74	=74
1C	1G	1c	1g	0ee	1cc
2r	1r	2r	2r	.	2r
2c	.	2g	2cc	.	2ee
=75	=75	=75	=75	=75	=75
1c	0r	1g	1cc	0r	1ee
2G	.	2g	2b	.	2dd
2B-	.	2d	2g	.	2dd
=76	=76	=76	=76	=76	=76
2.A	0r	2.e	2.a	0r	2.cc
4A	.	4f	4a	.	4cc
2G	.	2g	2d	.	2b
4F	.	[2a	[2f	.	4a
4G	.	.	.	.	4b
=77	=77	=77	=77	=77	=77
4A	0r	2a]	2f]	0r	4cc
4B	.	.	.	.	4dd
1c	.	4g	4e	.	1ee
.	.	4f	4d	.	.
.	.	2.g	2c	.	.
2B	.	.	2G	.	2dd
.	.	4f	.	.	.
=78	=78	=78	=78	=78	=78
1c	1r	1e	1g	1r	1cc
1G	2r	1d	1g	2r	2b
.	[2g	.	.	[2dd	[2b
=79	=79	=79	=79	=79	=79
0r	2g]	0r	0r	2dd]	2b]
.	2g	.	.	2ee	2b
.	2a	.	.	2ff	2cc
.	2g	.	.	2ee	2b
=80	=80	=80	=80	=80	=80
0r	1.a	0r	0r	2ff	2.cc
.	.	.	.	4ee	.
.	.	.	.	4dd	4dd
.	.	.	.	2cc	4ee
.	.	.	.	.	4ff
.	2g	.	.	2b	[2ee
=81	=81	=81	=81	=81	=81
1r	1f	1r	1r	1a	2ee]
.	.	.	.	.	2dd
[1c	1e	2r	2r	1g	1ee
.	.	[2e	[2g	.	.
=82	=82	=82	=82	=82	=82
2c]	0r	2e]	2g]	0r	0r
2c	.	2e	2a	.	.
2d	.	2f	2b-	.	.
2c	.	2e	2a	.	.
=83	=83	=83	=83	=83	=83
1.d	0r	1.f	2b-	2r	0r
.	.	.	4a	1dd	.
.	.	.	4g	.	.
.	.	.	4a	.	.
.	.	.	4b-	.	.
2c	.	2e	[2a	2ee	.
=84	=84	=84	=84	=84	=84
1B-	0r	1d	2a]	2ff	0r
.	.	.	2g	2dd	.
[1A	.	2.c	[1a	2ff	.
.	.	.	.	4ee	.
.	.	4d	.	4dd	.
=85	=85	=85	=85	=85	=85
1A]	1r	4e	1a]	4cc#	1r
.	.	4f	.	2dd	.
.	.	2e	.	.	.
.	.	.	.	4cc#	.
1r	[1f#	2d	1r	2dd	[1a
.	.	[2d	.	[2dd	.
=86	=86	=86	=86	=86	=86
0r	2f#]	2d]	0r	2dd]	2a]
.	2f#	2d	.	2dd	2b
.	2g	2c	.	2ee	2cc
.	2g	2B	.	2dd	2dd
=87	=87	=87	=87	=87	=87
0r	1g	1.c	0r	1.cc	1.ee
.	2e	.	.	.	.
.	[2a	2A	.	2cc	2ee
=88	=88	=88	=88	=88	=88
1r	2a]	1e	1r	1b	1ee
.	2g#	.	.	.	.
2r	2a	[1A	2r	2ee	2cc#
2A	2e	.	2a	2ee	2cc#
=89	=89	=89	=89	=89	=89
2D	2d	0A]	2a	2ff	2dd
2A	2c#	.	2a	2ee	2ee
[1D	[1d	.	[1a	[1dd	[1ff
=90	=90	=90	=90	=90	=90
2D]	2d]	1r	2a]	2dd]	2ff]
2D	2d	.	2a	2dd	2ff
1A	1e	2r	2a	2cc#	2ee
.	.	2A	2e	2cc#	2ee
=91	=91	=91	=91	=91	=91
0r	0r	1d	1f#	1dd	1a
.	.	2c	2g	[1ee	1cc
.	.	2A	2a	.	.
=92	=92	=92	=92	=92	=92
0r	0r	1.a	1cc	2ee]	2a
.	.	.	.	2a	1ee
.	.	.	2cc	2ee	.
.	.	2a	[2cc	2ff	2cc
=93	=93	=93	=93	=93	=93
1r	1r	0g	2cc]	1gg	0dd
.	.	.	4b	.	.
.	.	.	4a	.	.
[1G	[1B	.	1b	2r	.
.	.	.	.	[2gg	.
=94	=94	=94	=94	=94	=94
1G]	1B]	0d	1g	2gg]	1dd
.	.	.	.	1dd	.
1D	[1A	.	1a	.	2.ff
.	.	.	.	[2ff	.
.	.	.	.	.	4ee
=95	=95	=95	=95	=95	=95
2.F	2A]	0A	[0a	4ff]	4dd
.	.	.	.	4ee	4cc
.	2.a	.	.	2dd	2ff
4G	.	.	.	.	.
1A	.	.	.	2cc#	2ee
.	4g	.	.	.	.
.	2f	.	.	2dd	[2dd
=96	=96	=96	=96	=96	=96
0AA	0e	0A	0a]	1ee	2dd]
.	.	.	.	.	4cc#
.	.	.	.	.	4b
.	.	.	.	1a	1cc#
=97	=97	=97	=97	=97	=97
0D	1d	2A	1f#	1a	1dd
.	.	1A	.	.	.
.	1d	.	1f#	1dd	1a
.	.	[2d	.	.	.
=98	=98	=98	=98	=98	=98
1G	1B	2d]	1g	1dd	1b
.	.	1B	.	.	.
1E	1G	.	1g	1gg	1ee
.	.	[2c	.	.	.
=99	=99	=99	=99	=99	=99
1.F	1.c	4c]	1.a	1.ff	1.cc
.	.	4B	.	.	.
.	.	4A	.	.	.
.	.	4G	.	.	.
.	.	2A	.	.	.
2F	2c	2A	2a	2ff	2cc
=100	=100	=100	=100	=100	=100
2C	2e	1c	2g	1ee	1cc
2c	2e	.	2g	.	.
2.c	2.e	2r	2.g	1r	1r
.	.	2c	.	.	.
4c	4e	.	4g	.	.
=101	=101	=101	=101	=101	=101
2F	2f	2.c	2a	0r	0r
2A	2e	.	2cc	.	.
.	.	4c	.	.	.
2G	2g	2d	2b	.	.
2F	[2c	2f	2a	.	.
=102	=102	=102	=102	=102	=102
4c	4c]	2e	2g	0r	0r
4B	4d	.	.	.	.
4A	2e	2.c	4cc	.	.
4G	.	.	4b	.	.
[1F	2f	.	4a	.	.
.	.	4B	4g	.	.
.	4a	2A	4f	.	.
.	4g	.	4e	.	.
=103	=103	=103	=103	=103	=103
2F]	4f	2a	2d	0r	0r
.	4e	.	.	.	.
2A	4d	2f	1c	.	.
.	4c	.	.	.	.
[1G	1d	1g	.	.	.
.	.	.	4B	.	.
.	.	.	4A	.	.
=104	=104	=104	=104	=104	=104
0G]	1d	2r	1B	2r	2r
.	.	2g	.	2dd	2b
.	1r	2.g	1r	2.dd	2.b
.	.	4g	.	4dd	4b
=105	=105	=105	=105	=105	=105
0r	0r	2c	0r	2ee	2cc
.	.	2e	.	2gg	2g
.	.	2d	.	2ff	2a
.	.	2c	.	2ee	2cc
=106	=106	=106	=106	=106	=106
0r	0r	4g	0r	2dd	2b
.	.	4f	.	.	.
.	.	4e	.	2.gg	2.ee
.	.	4d	.	.	.
.	.	[1c	.	.	.
.	.	.	.	4ff	4dd
.	.	.	.	4ee	4cc
.	.	.	.	4dd	4b
=107	=107	=107	=107	=107	=107
0r	0r	2c]	0r	4cc	4a
.	.	.	.	4b	4g
.	.	2e	.	4a	1g
.	.	.	.	4g	.
.	.	1d	.	1a	.
.	.	.	.	.	2f#
=108	=108	=108	=108	=108	=108
2r	2r	2r	1r	2b	2g
2G	2d	2B	.	2dd	2g
2.G	2.d	2.B	2r	2.dd	2.gg
.	.	.	2g	.	.
4G	4d	4B	.	4dd	4gg
=109	=109	=109	=109	=109	=109
2C	2e	2c	2.g	1gg	1ee
2E	2g	2B	.	.	.
.	.	.	4g	.	.
2D	2f	2d	2a	2r	2ff
2C	2e	2G	2cc	[2g	2gg
=110	=110	=110	=110	=110	=110
1G	1d	2G	2b	2g]	1gg
.	.	2.g	2b	2dd	.
[1C	4c	.	2cc	1ee	1gg
.	4d	4f	.	.	.
.	4e	4e	4c	.	.
.	4f	4d	4d	.	.
=111	=111	=111	=111	=111	=111
1C]	2g	2c	4e	1ee	1r
.	.	.	4f	.	.
.	2G	2B	1g	.	.
1D	[1d	1A	.	2.dd	2r
.	.	.	2f#	.	[2dd
.	.	.	.	4cc	.
=112	=112	=112	=112	=112	=112
0G	2d]	[0G	0g	4b	4dd]
.	.	.	.	4a	4cc
.	2d	.	.	4g	4b
.	.	.	.	4a	4a
.	2B	.	.	4b	4g
.	.	.	.	4cc	4a
.	2G	.	.	2dd	4b
.	.	.	.	.	8a
.	.	.	.	.	8b
=113	=113	=113	=113	=113	=113
0C	4g	1G_	2.e	0ee	0cc
.	4f	.	.	.	.
.	4e	.	.	.	.
.	4d	.	4f	.	.
.	1c	1G_	1g	.	.
=114	=114	=114	=114	=114	=114
0G	0d	0G]	0g	0dd	0b
==	==	==	==	==	==
*-	*-	*-	*-	*-	*-
!!!CDT: 1525/^1526/-1594/2/2
!!!OCY: Italia
!!!AGN: Mass (Parody)
!!!AST: renaissance, vocal
!!!ASW: Motet (Palestrina)
!!!PWK: Masses, Book 9
!!!RNB: Cadence finals: C
!!!YOR: Le Opere Complete, v. 25, p. 209
!!!YOO: Rome, Italy: Fratelli Scalera
!!!END: 1992//
!!!EED: John Miller
!!!YEC: Copyright 2000, John Miller
!!!YEN: United States of America
!!!YEM: Rights to all derivative electronic formats reserved.
!!!YEM: Refer to licensing agreement for further details.
!!!YEM: This file must be accompanied by the licensing agreement.
!!!YEM: A copy of the licensing agreement may be found at http://www.music-cog.ohio-state.edu/HumdrumDatabases/Palestrina/license.txt
!!!EMD: converted to Humdrum by Bret Aarden
